X: 1
T: Polca Aine
M: 2/4
L: 1/8
R: polka
K: Edor
E>F GA|Be dB|A>B AG|FA D2|
E>F GA|Be dB|AF DD|1FE ED:|2FE E>A||
Be ed/e/|fe dA|Be ed/e/|fe d2|
Be ed/e/|fe dB|AF DD|1FE E>A:|2FE ED||
